X: 32401
T: Piper's Chair, The
R: jig
M: 6/8
K: Gmajor
GAG GFD|c2c cBc|d/e/dd cAG|A2G FED|
DGG GFD|c2z cBc|ded cAF|1 AGF G2G:|2 AGF G2z||
g2z agf|d2g gfg|GBd fef|A2B cBA|
GBd g2f|d2e fdc|Bdd cAF|AGF G2z:|

